X:66
T:Payne's 5th Sett Of Quadrilles,1. Le4.066
B:L.Leadley MS#4 c1850
Z:Village Music Project, 2016 Steve Mansfield
M:2/4
L:1/8
Q:2/4=50
N: Time signature 3/4 in Mss but barred in 2/4
K:Cm
c/e/g/ | g2 e2 | cB2 (f/g/) | agfe | dd d/c/d/f/ |
g2 c'2 | aa2 f/d/ | eg g/f/d/e/ | c2 z H||
d/e/ | fagf | egec | dfde | c2 cd/e/ |
(f/g/a/g/) (b/a/g/f/) | (g/f/e/d/) (e/g/e/c/ ) | =B/c/d/B/ G/f/d/B/ | c3 !segno! ||
[K:C]
G | egfd | BeGe | dfaa | c2 (Bg) |
g2 gg | gc'ge | dagB | c3 !segno! |]

